X:1
T:Title
%%score [ 1 2 3 4 ]
L:1/8
Q:1/4=240
M:4/4
K:F
V:1 treble nm="S."
V:2 treble nm="A."
V:3 treble-8 nm="T."
V:4 bass nm="B."
V:1
 d8 d6 d2 | c4 d4 B6 c2 | d8 z8 | z8 z4 d4 | d6 d2 c4 d4 | B6 c2 d8 | z8 z4 e4 | f4 d4 c4 f4 | %8
w: Compt al- le|voort by twee by|drye,|En|hoort u lot met|zin- ne blye,|Wat|u toe- sendt for-|
 e4 c4 d4 B4 | A4 d8 c4 | d4 B4 A4 B4 | c4 A4 B4 A4- | A4 G4 A8- | A8 z8 | z16 | z16 | z16 | z16 | %18
w: tu- ne lo- te-|rye, * Wat|u toe- sendt for-|tu- ne lo- te-|* * rye.||||||
 z16 | z16 | z16 | z16 | z4 A4 c6 c2 | B4 c4 d4 B2 B2 | A8 | z24 | z24 | z24 | A16 A8 | B8 A12 G4 | %30
w: ||||Wat sal hy|heb- ben, ma- ket ons|wys?||||Ramp en|roy voer den|
 G16 ^F8 |[M:4/4] G8 z8 | z16 | z4 d4 d4 c4 | d4 A4 c6 B2 | A8 z4 d4 | c4 c2 c2 d4 A4 | %37
w: ier- sten|prys.||Die ger- ne|poit en is be-|roit, Wat|sal men hem bor- *|
 c6 B2 A4 f4 | e4 d8 ^c4 | d8 c8- | c16 | c8 z8 | z16 | z4 G4 B6 B2 | A4 d4 d4 c4 | d16- | %46
w: * * ghen, segt|ons * tbe-|diet? Nyet.||||Die ger- ne|veel heeft aen den|sack,|
 d8 z4 G4 | B6 B2 A4 d4 | d4 c4 d4 d4 | d4 c4 B4 A4 | A4 G4 A8 | z16 | z16 | z8 A4 A2 G2 | %54
w: * En|niet en pryst syns|selfs- ge- mack, Wat|sal hem int eyn-|de ge- schien?|||Dru- pen- de|
 A4 A2 A2 G4 ^F4 | !3!G16 z8 | B16 B8 | A8 A8 A8 | B8 G16 | G8 d12 c4 | B16 A8 | B24 | z24 | z24 | %64
w: neu- se en cou- de|knie,|Blau- we|ca- ken en|qua- lic|sien, Son- *|der ges-|chil,|||
 z24 | A16 A8 | B8 A16 | A8 B12 A4 | G16 ^F8 | G8 A8 A8 | B8 A16 | A8 B12 A4 | G16 ^F8 | G24 |] %74
w: |Twee hou-|te cruc-|ken en ee-|* nen|bril, Twee hou-|te cruc-|ken en ee-|* nen|bril.|
V:2
 D8 F4 F4 | E4 D4 G4 G4 | F8 z8 | z8 z4 D4 | F6 G2 A4 F4 | G4 G4 F8 | z4 A4 B4 G4 | F6 G2 A4 F4 | %8
w: Compt al- le|voort by twee by|drye,|En|hoort u lot met|zin- ne blye,|Wat u toe-|sendt * * for-|
 G4 A4 D4 G4 | F4 G4 E8 | D8 z4 F4 | A8 G4 E4 | F4 D4- D2 C2 F4- | F4 E4 F8- | F8 z8 | %15
w: tu- ne lo- *|* * te-|rye, Wat|u toe- sendt|for- tu- * ne lo-|* te- rye.||
 z4 D4 F4 F4 | E6 F2 G4 E4 | D8 z4 D4 | F6 F2 E4 E2 F2 | G4 E4 D8 | z4 A4 A6 A2 | G4 A4 F4 F2 G2 | %22
w: Die met en|quaet wyf is ge-|plaecht, En|el- ders ger- ne ten|nes- te draecht,|Wat sal hy|heb- ben, ma- ket ons|
 A4 A4 A6 A2 | D4 A4 F4 G2 G2 | F8 | !3!E16 E8 | F8 E12 D4 | D16 ^C8 | D8 F8 F8 | G8 F8 D8 | %30
w: wys? Wat sal hy|heb- ben, ma- ket ons|wys?|Ramp en|roy voer den|ier- sten|prys, Ramp en|roy voer den|
 E8 D16 |[M:4/4] D8 z4 D4 | D4 C4 D4 A,4 | C4 B,4 A,4 G4 | G4 F4 G8 | z4 A4 G4 G2 G2 | A8 F8 | %37
w: ier- sten|prys. Die|ger- ne poit en|is be- roit, en|is be- roit,|Wat sal men hem|bor- *|
 E8 z4 A4 | B4 G4 A8- | A8 A8- | A8 G8- | G8 z8 | z16 | z4 G4 G6 G2 | F4 G4 F4 E4 | D8 z8 | %46
w: ghen, segt|ons tbe- diet?|* Nyet.||||Die ger- ne|veel heeft aen den|sack,|
 z8 z4 G4 | G6 G2 F4 G4 | F4 E4 D4 F4 | F4 A4 G4 F4 | F4 E4 D8 | A4 A2 D2 A4 A2 G2 | %52
w: En|niet en pryst syns|selfs- ge- mack, Wat|sal hem int eyn-|de ge- schien?|Dru- pen- de neu- se en|
 F2 B4 A2- A2 G4 ^F2 | G8 F4 F2 E2 | F4 F2 F2 D4 D4 | !3!D16 z8 | B,16 B,8 | D8 D8 D8 | B,8 C16 | %59
w: cou- * * * * de|knie, Dru- pen- de|neu- se en cou- de|knie,|Blau- we|ca- ken en|qua- lic|
 B,24 | F8 F8 F8 | F16 z8 | F8 F8 G8 | E8 F12 E4 | D16 ^C8 | D8 F8 F8 | G8 E16 | F8 D16 | E8 D16 | %69
w: sien,|Son- der ges-|chil,|Twee hou- te|cruc- ken en|ee- nen|bril, Twee hou-|te cruc-|ken en|ee- nen|
 D8 F8 F8 | G8 E16 | F8 D16 | E8 D16 | D24 |] %74
w: bril, Twee hou-|te cruc-|ken en|ee- nen|bril.|
V:3
 z16 | z8 z4 d4 | d6 d2 c4 d4 | B6 c2 d8 | z16 | z4 d4 d6 d2 | c4 d4 B6 c2 | d8 z8 | z16 | z16 | %10
w: |Compt|al- le voort by|twee by drye,||En hoort u|lot met zin- ne|blye,|||
 z4 d4 f4 d4 | c4 f4 e4 c4 | d4 B4 A4 d4- | d4 ^c4 d8- | d8 z8 | z16 | z16 | z16 | z16 | z16 | %20
w: Wat u toe-|sendt for- tu- ne|lo- * * te-|* * rye.|||||||
 z16 | z8 z4 d4 | f6 f2 e4 f4 | g4 e2 e2 d8 | z8 | z24 | z24 | z24 | d16 d8 | d16 B8 | c8 A8 A8 | %31
w: |Wat|sal hy heb- ben,|ma- ket ons wys?|||||Ramp en|roy voer|den ier- sten|
[M:4/4] G16 | z4 g4 f4 f4 | g4 d4 f4 e4 | d8 z4 g4 | f4 f2 f2 g4 d2 d2 | f4 e4 d8 | %37
w: prys.|Die ger- ne|poit en is be-|roit, Wat|sal men hem bor- ghen, segt|ons tbe- diet?|
 z4 g4 f4 f2 f2 | g4 d2 d2 f4 e4 | d8 f8- | f8 e8- | e8 z4 g4 | f4 d4 f4 g4 | f4 e4 d8 | z16 | %45
w: Wat sal men hem|bor- ghen, segt ons tbe-|diet? Nyet.||* Die|ger- ne veel heeft|aen den sack,||
 z4 g4 f4 d4 | f4 g4 f4 e4 | d8 z8 | z8 z4 d4 | f6 e2 d4 d4 | c4 B4 A8- | A8 z8 | z16 | %53
w: En niet en|pryst syns selfs- ge-|mack,|Wat|sal hem int eyn-|de ge- schien?|||
 z8 d4 d2 G2 | d4 d2 c2 B4 A4 | !3!G16 z8 | d16 d8 | f8 f8 f8 | g8 d16 | d16 B8 | d8 c16 | B24- | %62
w: Dru- pen- de|neu- se en cou- de|knie,|Blau- we|ca- ken en|qua- lic|sien, Son-|der ges-|chil,|
 B24 | z24 | z24 | z24 | d8 d8 ^c8 | d16 B8 | c8 A8 A8 | G8 z8 z8 | d8 d8 ^c8 | d16 B8 | c8 A8 A8 | %73
w: ||||Twee hou- te|cruc- ken|en ee- nen|bril,|Twee hou- te|cruc- ken|en ee- nen|
 G24 |] %74
w: bril.|
V:4
 z16 | z8 z4 G,4 | B,6 B,2 A,4 F,4 | G,4 E,4 D,8 | z16 | z4 G,4 B,6 B,2 | A,4 F,4 G,4 E,4 | %7
w: |Compt|al- le voort by|twee by drye,||En hoort u|lot met zin- ne|
 D,8 z8 | z16 | z8 z4 A,4 | B,4 G,4 F,4 B,4 | A,4 F,4 G,4 A,4 | D,4 G,4 F,4 D,4 | A,8 D,8- | %14
w: blye,||Wat|u toe- sendt for-|tu- ne lo- *||te- rye.|
 D,8 G,8 | B,4 B,4 A,4 B,4 | C4 A,4 G,8 | z4 G,4 B,6 B,2 | A,4 A,2 B,2 C4 A,4 | G,8 z4 D4 | %20
w: * Die|met en quaet wyf|is ge- plaecht,|En el- ders|ger- ne ten nes- te|draecht, Wat|
 D6 D2 C4 D4 | B,4 C2 C2 D8 | z4 D,4 A,6 A,2 | G,4 A,4 B,4 G,2 G,2 | D8 | !3!A,16 A,8 | A,8 F,16 | %27
w: sal hy heb- ben,|ma- ket ons wys?|Wat sal hy|heb- ben, ma- ket ons|wys?|Ramp en|roy voer|
 G,8 E,8 E,8 | D,8 D,8 D,8 | G,8 D,8 G,8 | C,8 D,16 |[M:4/4] G,8 z4 G,4 | G,4 E,4 D,8 | z16 | %34
w: den ier- sten|prys. Ramp en|roy voer den|ier- sten|prys. Die|ger- ne poit,||
 z4 D4 C4 C4 | D4 A,4 C4 B,4 | A,8 z4 D4 | C4 C2 C2 D4 D4 | G,4 B,4 A,8 | D,8 F,8- | F,8 C,8- | %41
w: Die ger- ne|poit en is be-|roit, Wat|sal men hem bor- ghen,|segt ons tbe-|diet? Nyet.||
 C,8 G,8 | B,6 B,2 A,4 G,4 | B,4 C4 G,8 | z8 z4 C4 | B,4 G,4 B,6 C2 | D4 G,4 B,4 C4 | G,8 z8 | %48
w: * Die|ger- ne veel heeft|aen den sack,|En|niet en pryst *|* syns selfs- ge-|mack,|
 z8 z4 B,4 | B,4 F,4 G,4 D,4 | F,4 G,4 D,8- | D,8 D4 D2 G,2 | D4 D2 C2 B,4 A,4 | G,8 D,4 D,2 E,2 | %54
w: Wat|sal hem int eyn-|de ge- schien?|* Dru- pen- de|neu- se en cou- de|knie, Dru- pen- de|
 D,4 F,2 F,2 G,4 D,4 | !3!G,16 z8 | G,16 G,8 | D,8 D,8 D,8 | G,8 C,16 | G,16 G,8 | B,8 F,16 | %61
w: neu- se en cou- de|knie,|Blau- we|ca- ken en|qua- lic|sien, Son-|der ges-|
 B,16 z8 | D8 D8 G,8 | A,16 F,8 | G,8 E,8 E,8 | D,8 D8 D8 | G,8 A,16 | D,8 G,16 | C,8 D,16 | %69
w: chil,|Twee hou- te|cruc- ken|en ee- nen|bril, Twee hou-|te cruc-|ken en|ee- nen|
 G,8 D8 D8 | G,8 A,16 | D,8 G,16 | C,8 D,16 | G,24 |] %74
w: bril, Twee hou-|te cruc-|ken en|ee- nen|bril.|

